X:1
T:Calliope House
C:Dave Richardson
M:6/8
R:Jig
K:Dmaj
aa/a/a faa | eaa def | gg/g/g ff/f/f | (e/f/e)e edB |
(A/B/A)A A2F | A2B d2e |[1 ff/f/f fed | ee/e/e efg :|[2 ff/f/f edB | dd/d/d d2A |
|: dAA fA/A/A | eAA f2A | Bee e2d | (e/f/e)e edB | (A/B/A)A A2F |
A2B d2e |1 ff/f/f fed | ee/e/e e2A :|2 ff/f/f edB | dd/d/d dfg |]

%%newpage
%%scale .70
%%staffsep 46

